X: 35493
T: Rubane Road
R: jig
M: 6/8
K: Gdorian
DGA B2c|B2c AFD|F3 AFc|dcB AGF|
DGG G2A|B2c Ace|f2d cAF|AGF G2F:|
g3 g3|g2a bag|f2f fef|(3aag f ecA|
dgg ^fgg dga bag|f2d agf|dcA GAd:|

